X:210
T: ICH UND MEIN JUNGES WEIB
N: K3027
O: Europa, Mitteleuropa, Deutschland, Rheinpfalz
R: Kinder - Lied, Tanz
M: 3/4
L: 1/4
K: G
 | ddc | BBB |
Ged | d2c |
ccB | AAA |
Fdc | c2B

@@@ Tune index: 7547
